X:1
T:Banks and Braes
M:6/8
L:1/8
Q:80
C:
S:Slow March
K:HP
|: {Gdc}d2{g}d{g}ede | \
{g}faf{gef}e2{g}d/2e/2 | \
{g}f3/2e/2d{g}dB{G}A |
{g}A3/2B/2d{gef}e2{g}A | \
{Gdc}d2{g}d{g}ede | \
{g}faf{gef}e2{g}d/2e/2 |
{g}f3/2e/2d{g}dB{G}A | \
{g}A3/2B/2d{gdc}d2|1 {g}A|2 g :: \
a2{GdG}a{g}af{g}d |
a2{GdG}a{g}af{g}d | \
a3/2f/2{g}daf{g}d | \
{g}c3/2d/2e{g}A2{GAG}A |
{Gdc}d2{g}d{g}ede | \
{g}faf{gef}e2{g}d/2e/2 | \
{g}f3/2e/2d{g}dB{G}A |
{g}A3/2B/2d{gdc}d2|1 g|2 e :|
